X: 7
T:Black and White Rag
M:4/4
L:1/8
R:Ragtime
P:ABAC
K:G
P:A
d2 d2 ^c2 |: cdfc dfcd | fc d f2 c dc | ^ABeA BeAB | e^A B e2 dB G | cc
B
c2 B c2 | A^GAB cAFD | Gfag Bc^cd | BG E G3 d^c | cdfc dfcd | fc d f2 cd
 c
| ^ABeA BeAB | e^A B e2 d BG | E2 ^GB edcB | A^GAc edcA | BD G B2 G A2 |
